images/icon/contact.svg

<svg width="39" height="39" viewBox="0 0 39 39" fill="none" xmlns="http://www.w3.org/2000/svg">
<path d="M30.5561 17.3449C30.7998 16.0332 30.678 14.8408 30.3123 13.6484C29.9467 12.2175 29.0936 11.0251 28.1185 10.0712C27.0217 8.99798 25.8029 8.40177 24.3404 8.16329C23.4872 8.04404 22.6341 8.04404 21.9028 8.28253" stroke="white" stroke-width="1.83397" stroke-miterlimit="22.9256" stroke-linecap="round" stroke-linejoin="round"/>
<path d="M36.6499 20.2068C37.625 17.1065 37.625 14.0062 36.6499 11.2637C35.9187 9.11733 34.6999 7.20946 33.2374 5.65932C31.653 4.10917 29.8248 2.79751 27.6311 2.2013C25.3154 1.48585 22.756 1.36661 20.0747 2.2013" stroke="white" stroke-width="1.83397" stroke-miterlimit="22.9256" stroke-linecap="round" stroke-linejoin="round"/>
<path d="M11.4215 13.7676C9.47149 15.5562 10.0809 19.7297 12.884 23.3069C15.6872 26.8842 19.5873 28.4343 21.9029 27.1227L22.7095 26.3775" stroke="white" stroke-width="1.83397" stroke-miterlimit="22.9256" stroke-linecap="round" stroke-linejoin="round"/>
<path d="M28.2402 35.112C33.2546 31.4208 27.7527 35.589 26.0464 36.7814C22.8776 39.047 15.3213 34.7543 8.73993 26.2881C2.15858 17.822 -0.0352002 9.59426 2.88984 7.20943C4.47424 5.89776 4.96175 5.65928 5.08362 5.54004" stroke="white" stroke-width="1.83397" stroke-miterlimit="22.9256" stroke-linecap="round" stroke-linejoin="round"/>
<path d="M29.0159 33.2097L22.9221 25.459C22.5564 24.982 22.6783 24.3858 23.1658 24.0281L25.969 22.001C26.4565 21.6432 27.0659 21.7625 27.4315 22.2394L33.5253 29.9902C33.891 30.4671 33.7691 31.0634 33.2816 31.4211L30.4784 33.4482C30.1128 33.6867 29.3815 33.5674 29.0159 33.2097Z" stroke="white" stroke-width="1.83397" stroke-miterlimit="22.9256" stroke-linecap="round" stroke-linejoin="round"/>
<path d="M12.5183 13.0527L6.42451 5.30194C6.05888 4.82497 6.18075 4.22876 6.66826 3.87103L9.34955 1.84392C9.83706 1.4862 10.4464 1.60544 10.8121 1.96316L16.9059 9.71389C17.2715 10.1909 17.1497 10.7871 16.6622 11.1448L13.859 13.1719C13.4934 13.6489 12.884 13.5296 12.5183 13.0527Z" stroke="white" stroke-width="1.83397" stroke-miterlimit="22.9256" stroke-linecap="round" stroke-linejoin="round"/>
</svg>

<svg width="39" height="39" fill="none" xmlns="http://www.w3.org/2000/svg"><path d="M30.556 17.345c.244-1.312.122-2.504-.244-3.697-.365-1.43-1.218-2.623-2.194-3.577-1.096-1.073-2.315-1.67-3.778-1.908-.853-.119-1.706-.119-2.437.12" stroke="#fff" stroke-width="1.834" stroke-miterlimit="22.926" stroke-linecap="round" stroke-linejoin="round"/><path d="M36.65 20.207c.975-3.1.975-6.2 0-8.943-.731-2.147-1.95-4.055-3.413-5.605-1.584-1.55-3.412-2.861-5.606-3.458-2.316-.715-4.875-.834-7.556 0m-8.654 11.567c-1.95 1.788-1.34 5.962 1.463 9.539s6.703 5.127 9.019 3.816l.806-.745" stroke="#fff" stroke-width="1.834" stroke-miterlimit="22.926" stroke-linecap="round" stroke-linejoin="round"/><path d="M28.24 35.112c5.015-3.691-.487.477-2.194 1.67-3.168 2.265-10.725-2.028-17.306-10.494C2.159 17.822-.035 9.594 2.89 7.21c1.584-1.312 2.072-1.55 2.194-1.67" stroke="#fff" stroke-width="1.834" stroke-miterlimit="22.926" stroke-linecap="round" stroke-linejoin="round"/><path d="M29.016 33.21l-6.094-7.751c-.366-.477-.244-1.073.244-1.43L25.969 22c.487-.358 1.097-.239 1.462.238l6.094 7.751c.366.477.244 1.073-.243 1.431l-2.804 2.027c-.365.239-1.097.12-1.462-.238zM12.518 13.053L6.425 5.302c-.366-.477-.244-1.073.243-1.431L9.35 1.844c.487-.358 1.096-.239 1.462.12l6.094 7.75c.366.477.244 1.073-.244 1.43l-2.803 2.028c-.366.477-.975.358-1.34-.12z" stroke="#fff" stroke-width="1.834" stroke-miterlimit="22.926" stroke-linecap="round" stroke-linejoin="round"/></svg>
